data/styles/clear/style-night/symbols/museum-m.svg

<svg height="24" viewBox="0 0 24 24" width="24"><g fill="none" fill-rule="evenodd"><circle cx="12" cy="12" fill="#fff" opacity=".4" r="12"/><circle cx="12" cy="12" fill="#4d361f" r="11"/><path d="m6 8.76923077 6-2.76923077 6 2.76923077v.92307692h-1.3846154v6.92307691h1.3846154v1.3846154h-12v-1.3846154h1.38461538v-6.92307691h-1.38461538zm3.23076923.92307692v6.92307691h1.84615387v-6.92307691zm3.69230767 0v6.92307691h1.8461539v-6.92307691z" fill="#fff" opacity=".6"/></g></svg>

<svg width="24" height="24" viewBox="0 0 24 24">
  <g fill="none" fill-rule="evenodd">
    <circle cx="12" cy="12" r="12" fill="#FFF" opacity=".4"/>
    <circle cx="12" cy="12" r="11" fill="#4C351E"/>
    <path fill="#FFF" d="M6,8.76923077 L12,6 L18,8.76923077 L18,9.69230769 L16.6153846,9.69230769 L16.6153846,16.6153846 L18,16.6153846 L18,18 L6,18 L6,16.6153846 L7.38461538,16.6153846 L7.38461538,9.69230769 L6,9.69230769 L6,8.76923077 Z M9.23076923,9.69230769 L9.23076923,16.6153846 L11.0769231,16.6153846 L11.0769231,9.69230769 L9.23076923,9.69230769 Z M12.9230769,9.69230769 L12.9230769,16.6153846 L14.7692308,16.6153846 L14.7692308,9.69230769 L12.9230769,9.69230769 Z" opacity=".6"/>
  </g>
</svg>
